X: 209
T: Rose Tree
M: C
L: 1/4
K: D
|: f/e/ | "D"dB AF | A/B/A/F/ AF/A/ | dd f/e/d/e/ | "A7"fe e/g/f/e/ | 
 "D"dB AF | A/B/A/F/ AF/A/ |"G" dc/d/ "A7"ed/e/ | "D"fd d :|
|: d/e/ | "D"fe fg | "B7"a b/a/ gf | "Em"eb ba |"A7" be ef/e/ | 
"D"dB A F | A/B/A/F/ A F/A/ | "G"dc/d/ "A7"ed/e/ | "D"fd d :|
